src/static/logos/forest.svg

<?xml version="1.0" encoding="UTF-8" standalone="no"?>
<svg width="256px" height="256px" viewBox="0 0 256 256" version="1.1" xmlns="http://www.w3.org/2000/svg" xmlns:xlink="http://www.w3.org/1999/xlink" preserveAspectRatio="xMidYMid">
    <defs>
        <linearGradient x1="0%" y1="0.265603833%" x2="100%" y2="99.7343962%" id="linearGradient-1">
            <stop stop-color="#9BCD98" offset="0%"></stop>
            <stop stop-color="#45B271" offset="100%"></stop>
        </linearGradient>
    </defs>
	<g>
		<rect fill="url(#linearGradient-1)" x="0" y="0" width="256" height="256" rx="32"></rect>
		<path d="M135.820689,90.2434042 C166.744376,87.8354611 185.436828,72.617305 191.261384,52.3347517 C150.451645,71.767376 99.528793,47.9943263 89.8909498,90.9321984 L84.9501498,113.822412 C93.5450714,100.040851 104.898115,92.6513472 135.820689,90.2434042 L135.820689,90.2434042 Z M119.741329,94.1412768 C104.54272,96.4039718 92.3515546,103.690212 85.5096768,116.487943 C83.3069632,120.605958 82.5333984,125.031489 82.5333984,125.031489 L79.0362157,141.233475 C83.4171546,133.159716 91.2518675,122.841418 111.785294,117.931347 C112.247207,115.362269 115.050963,100.635461 119.741329,94.1412768 L119.741329,94.1412768 Z M75.84512,156.017362 L70.5036243,180.765163 C84.6559725,152.91722 115.112181,147.512397 118.873155,146.699915 C145.394755,140.968284 158.16359,127.359206 163.241294,109.674099 C140.100007,123.198071 86.084007,106.216511 75.84512,156.017362 L75.84512,156.017362 Z M67.931047,192.689021 L63.9997774,210.902922 C95.3642298,209.078241 98.8235686,177.92817 103.941343,153.182638 C94.1832902,156.702638 72.6781773,170.496681 67.931047,192.689021 L67.931047,192.689021 Z" fill="#FFFFFF"></path>
	</g>
</svg>

<svg width="256" height="256" xmlns="http://www.w3.org/2000/svg" preserveAspectRatio="xMidYMid"><defs><linearGradient x1="0%" y1=".266%" x2="100%" y2="99.734%" id="a"><stop stop-color="#9BCD98" offset="0%"/><stop stop-color="#45B271" offset="100%"/></linearGradient></defs><rect fill="url(#a)" width="256" height="256" rx="32"/><path d="M135.82 90.243c30.924-2.408 49.617-17.626 55.441-37.908-40.81 19.432-91.732-4.34-101.37 38.597l-4.94 22.89c8.594-13.781 19.947-21.17 50.87-23.579zm-16.079 3.898c-15.198 2.263-27.39 9.55-34.231 22.347-2.203 4.118-2.977 8.543-2.977 8.543l-3.497 16.202c4.381-8.073 12.216-18.392 32.75-23.302.461-2.569 3.265-17.296 7.955-23.79zm-43.896 61.876l-5.341 24.748c14.152-27.848 44.608-33.253 48.37-34.065 26.52-5.732 39.29-19.34 44.367-37.026-23.141 13.524-77.157-3.457-87.396 46.343zm-7.914 36.672L64 210.903c31.364-1.825 34.824-32.975 39.941-57.72-9.758 3.52-31.263 17.314-36.01 39.506z" fill="#FFF"/></svg>
